frontend/public/svg/misc/automation.svg

<svg width="134" height="133" viewBox="0 0 134 133" fill="none" xmlns="http://www.w3.org/2000/svg">
<path d="M37.8932 42.7875C46.3599 63.134 55.1496 84.2621 64.0699 105.703C70.0064 107.099 71.3132 108.453 72.1428 115.109C72.5363 118.254 72.7541 121.418 72.7952 124.586C72.8648 130.335 70.4541 133 64.7334 132.933C54.9022 132.817 45.0755 132.299 35.2448 132.07C31.3199 131.979 27.3819 132.104 23.461 132.326C20.5324 132.492 18.8666 131.73 18.631 128.873C18.0972 123.441 17.91 117.98 18.0704 112.524C18.2772 107.978 21.19 105.76 25.9944 105.447C27.5184 105.347 29.0536 105.397 30.5835 105.389C32.101 105.382 33.6184 105.389 35.676 105.389C34.5793 101.445 33.6841 97.8031 32.5525 94.2359C28.4951 81.4471 24.3575 68.6834 20.2488 55.9104C20.1176 55.4949 19.9318 55.0932 19.8261 54.6718C19.0845 51.7098 19.0707 48.2292 17.4141 45.9307C15.896 43.8245 12.4994 43.1577 10.1202 41.572C-2.30557 33.2897 -3.09316 13.4151 8.57193 4.05769C15.9767 -1.88282 29.154 -1.23308 37.1882 5.56329C38.8045 6.8652 40.2233 8.39493 41.4 10.1045C41.813 10.8636 42.4488 11.4777 43.2218 11.864C43.9947 12.2504 44.8676 12.3904 45.7226 12.2652C58.575 11.3647 71.4406 10.6309 84.2818 9.59458C92.041 8.96843 92.0266 8.76757 94.7996 15.9879C98.6352 15.5456 102.502 15.1689 106.34 14.5959C107.072 14.4863 107.814 13.7019 108.336 13.0548C110.46 10.4202 112.52 7.73183 114.571 5.03691C117.242 1.52353 119.618 0.851447 123.69 2.62684C125.814 3.49406 127.884 4.48761 129.889 5.60207C132.243 6.98366 133.025 9.1916 132.163 11.1153C131.31 13.0187 129.115 13.9172 126.545 13.2004C125.169 12.8464 123.858 12.2769 122.66 11.513C120.785 10.2476 119.51 10.7011 118.239 12.3557C117.339 13.4559 116.372 14.4991 115.344 15.4793C111.962 18.9047 111.777 22.0873 114.647 25.9807C116.721 28.7937 118.734 31.6503 120.686 34.5505C121.703 36.0601 122.842 36.3915 124.58 35.8251C126.426 35.1549 128.361 34.7662 130.323 34.6719C131.373 34.6621 133.14 35.6295 133.31 36.427C133.539 37.5027 132.893 39.4022 132.003 39.9607C129.114 41.7212 126.094 43.256 122.968 44.5511C120.343 45.6774 118.212 44.3542 116.713 42.2769C114.029 38.5613 111.359 34.8137 109.034 30.8744C107.977 29.0858 106.824 28.4321 104.899 28.4242C102.714 28.4676 100.529 28.336 98.3648 28.0304C96.0499 27.6452 94.9795 28.6868 94.1505 30.6157C92.4138 34.6601 92.272 34.5275 87.7801 34.5603C81.6656 34.6056 75.5505 35.155 69.44 35.0854C62.2393 35.0027 55.0374 34.5787 47.8465 34.1009C45.907 33.9697 44.6482 34.1666 43.4865 35.9472C42.0097 38.2142 40.065 40.1786 37.8932 42.7875ZM39.5458 24.7198C39.3299 14.227 31.6435 6.80772 21.3344 7.14245C13.0298 7.4122 7.13781 13.9684 7.25399 22.8047C7.37541 32.0026 13.9139 38.5712 23.0842 38.2621C33.3021 37.9188 40.3997 30.3591 39.5458 24.7198ZM24.4166 45.7306C24.4156 46.2119 24.4655 46.6919 24.5656 47.1627C26.2668 51.994 28.0501 56.7964 29.7034 61.6435C34.4474 75.5526 39.1179 89.4866 43.9072 103.379C44.2353 104.322 45.235 105.604 46.0442 105.7C48.5856 106.001 51.186 105.81 54.0673 105.81L31.251 44.4612L24.4166 45.7306ZM47.1606 28.9158L88.1411 27.7646C87.8477 26.3358 87.6232 25.2994 87.4237 24.2584C87.1979 23.081 86.9794 21.9016 86.7838 20.7188C86.2062 17.2238 86.2114 17.2212 82.6488 17.2336C71.8455 17.2726 61.0424 17.3118 50.2395 17.3512C48.8724 17.3564 47.5046 17.3512 46.1131 17.3512C46.4531 21.1153 46.7662 24.5656 47.1606 28.9158ZM25.7102 124.025H63.2934V113.661H26.3298C26.1099 117.322 25.9111 120.655 25.7102 124.025Z" fill="black"/>
<path d="M22.1694 30.0825C18.5379 30.0319 15.4058 28.1135 14.5946 25.4343C13.6337 22.2648 14.9595 18.7344 17.9419 16.5272C23.3121 12.5491 28.8594 13.9641 30.6237 19.7622C32.2691 25.1803 28.1867 30.1665 22.1694 30.0825Z" fill="black"/>
</svg>

<svg xmlns="http://www.w3.org/2000/svg" width="134" height="133" fill="none" viewBox="0 0 134 133"><path fill="#000" d="M37.893 42.788C46.36 63.134 55.15 84.262 64.07 105.703c5.936 1.396 7.243 2.75 8.073 9.406.393 3.145.611 6.309.652 9.477.07 5.749-2.34 8.414-8.062 8.347-9.83-.116-19.658-.634-29.488-.863-3.925-.091-7.863.034-11.784.256-2.929.166-4.594-.596-4.83-3.453a129 129 0 0 1-.56-16.349c.206-4.546 3.119-6.764 7.923-7.077 1.524-.1 3.06-.05 4.59-.058 1.517-.007 3.034 0 5.092 0-1.097-3.944-1.992-7.586-3.123-11.153-4.058-12.789-8.195-25.553-12.304-38.326-.131-.415-.317-.817-.423-1.238-.742-2.962-.755-6.443-2.412-8.741-1.518-2.106-4.915-2.773-7.294-4.359C-2.306 33.29-3.093 13.415 8.572 4.058c7.405-5.94 20.582-5.291 28.616 1.505a21.4 21.4 0 0 1 4.212 4.542 4.22 4.22 0 0 0 4.323 2.16c12.852-.9 25.718-1.634 38.559-2.67 7.759-.627 7.745-.827 10.518 6.393 3.835-.442 7.702-.82 11.54-1.392.732-.11 1.474-.894 1.996-1.541 2.124-2.635 4.184-5.323 6.235-8.018 2.671-3.513 5.047-4.186 9.119-2.41a58 58 0 0 1 6.199 2.975c2.354 1.382 3.136 3.59 2.274 5.513-.853 1.904-3.048 2.802-5.618 2.085a13.5 13.5 0 0 1-3.885-1.687c-1.875-1.265-3.15-.812-4.421.843q-1.352 1.652-2.895 3.123c-3.382 3.426-3.567 6.608-.697 10.502a244 244 0 0 1 6.039 8.57c1.017 1.51 2.156 1.84 3.894 1.274a19.6 19.6 0 0 1 5.743-1.153c1.05-.01 2.817.958 2.987 1.755.229 1.076-.417 2.975-1.307 3.534a66 66 0 0 1-9.035 4.59c-2.625 1.126-4.756-.197-6.255-2.274-2.684-3.716-5.354-7.463-7.679-11.403-1.057-1.788-2.21-2.442-4.135-2.45a41 41 0 0 1-6.534-.394c-2.315-.385-3.385.657-4.215 2.586-1.736 4.044-1.878 3.912-6.37 3.944-6.114.046-12.23.595-18.34.525-7.2-.082-14.403-.506-21.593-.984-1.94-.131-3.199.066-4.36 1.846-1.477 2.267-3.422 4.232-5.594 6.84m1.653-18.068C39.33 14.227 31.644 6.808 21.334 7.142c-8.304.27-14.196 6.826-14.08 15.663.121 9.198 6.66 15.766 15.83 15.457C33.302 37.92 40.4 30.36 39.546 24.72m-15.13 21.01q0 .725.15 1.433c1.7 4.831 3.484 9.633 5.137 14.48 4.744 13.91 9.415 27.844 14.204 41.736.328.943 1.328 2.225 2.137 2.321 2.542.301 5.142.11 8.023.11L31.251 44.461zm22.745-16.814 40.98-1.151c-.293-1.43-.518-2.466-.717-3.507a141 141 0 0 1-.64-3.54c-.578-3.494-.573-3.497-4.135-3.484l-32.41.117c-1.367.005-2.734 0-4.126 0 .34 3.764.653 7.215 1.048 11.565m-21.45 95.109h37.582v-10.364H26.33z"/><path fill="#000" d="M22.17 30.083c-3.632-.051-6.764-1.97-7.575-4.649-.961-3.17.364-6.7 3.347-8.907 5.37-3.978 10.917-2.563 12.682 3.235 1.645 5.418-2.437 10.404-8.455 10.32"/></svg>
